X:75
T:Ground in C minor
C:Purcell, H.
M:3/4
L:1/8
Q:1/4=66
K:Cmin
|:G2|c4 Bc|d2 cd e2|f4 ef|g2 fg a2|
b4 ag|f2 ed c2|d2 ef ga|g4:|

